X: 131
T: Morpeth Rant
%O: 1795
%R: reel, hornpipe
Z: 2018 John Chambers <jc:trillian.mit.edu>
B: Wm. Campbell "10th Book of New and Favorite Country Dances, Strathspey Reels" 1795 p.13
F: https://archive.org/details/campbellstenthbo00camp
M: C|
L: 1/8
K: G
% - - - - - - - - - - - - - - - - - - - - - - - - -
% Voice 1 arranged for small-scale proofreading
V: 1 staves=2
(DE/F/) |\
G2DC B,G,B,D | ECEG FDFA | BGcA dBAG | F2A2 A2GF |\
G2DC B,G,B,D | ECEG FDFA | Ggfe dcBA | G2G2G2 :|
|: ef |\
gdBG FAce | dBAG GFED | cAcA BGBG | F2D2 D2=F2 |\
ECEG cBAG | FDFA dcBA | Ggfe dcBA | G2G2G2 :|
% - - - - - - - - - - - - - - - - - - - - - - - - -
% Voice 1 preserves the original staff layout
V: 2 clef=bass middle=d
d2 |\
g2dc BGBd | c4 d4 | g2f2 g2^c2 | d2d2 d2gf | g2dc BGBd |
c4 d4 | G2A2 B2c2 | d2D2 G2 :|\
|: z2 | g4 f4 | g2c2 d2z2 |
a2d2 g2G2 | d2d2 d2z2 | c8 | d8 | G2A2 B2c2 | d2D2 G2 :|
% - - - - - - - - - - - - - - - - - - - - - - - - -
%%begintext align
%% Cast off 2 Cu up again :|: Right hands
%% across half round Left hands back again
%% cross over 1 Cu & turn your Partner
%% Right & Left at top.
%%endtext
% - - - - - - - - - - - - - - - - - - - - - - - - -

%%sep 1 1 500
%%sep 1 1 500

